X: 1264
T: The Ships are Sailing
M:C|
L:1/8
R:Reel
B:O'Neill's 1264
N:Collected by F. O'Neill
Z:Transcribed by Trish O'Neil
K:Em
Beed B^cdB | AD (3FED AD (3FED | E^DEF GFGA |1 Beef gfed :|2 Bee^de2 ||
(ef) | gfga bgeg | fefg afdf | gfga bgeg | fe^dfe2(ef) |
gfga bgeg | fefg afdf | g2~(ge)f2~(fd) | e^def "D.C."gfed |]


